svg/white/btg.svg

<svg xmlns="http://www.w3.org/2000/svg" width="32" height="32" viewBox="0 0 32 32">
  <path fill="#FFF" d="M16,32 C7.163444,32 0,24.836556 0,16 C0,7.163444 7.163444,0 16,0 C24.836556,0 32,7.163444 32,16 C32,24.836556 24.836556,32 16,32 Z M16,27 C22.0751322,27 27,22.0751322 27,16 C27,9.92486775 22.0751322,5 16,5 C9.92486775,5 5,9.92486775 5,16 C5,22.0751322 9.92486775,27 16,27 Z M15.0115224,6.74031501 L15.0115224,6.74049104 C15.4484497,6.71056565 15.887492,6.68996994 16.3244193,6.67535931 C16.3286494,7.57188873 16.3265344,8.46965037 16.3244193,9.36741201 C15.8874333,9.36600376 15.450506,9.36529963 15.0136374,9.36529963 C15.0143424,8.49030475 15.0136374,7.61530988 15.0115224,6.74031501 Z M18.1644844,9.4073712 L18.1650131,9.40701914 C18.1628981,8.58248668 18.1628981,7.7577782 18.1692432,6.93324574 C20.5992218,7.54178731 22.7632369,9.13012129 24.0361248,11.2912624 C25.4771566,13.6875818 25.7186211,16.748949 24.6977727,19.3506975 C23.6222865,22.1707252 21.0932545,24.3507017 18.1628981,25.0662706 C18.1650131,24.2463149 18.1671281,23.4275915 18.1607831,22.6092202 C19.5533457,22.4768443 21.0784494,22.3552064 22.2043436,21.4298078 C23.3406366,20.4331164 23.6032513,18.7377551 23.2734849,17.3235165 C23.0200353,16.2451463 22.002712,15.5610872 20.9755186,15.3218601 C22.6916788,14.4112481 22.8723366,11.7716529 21.4713139,10.5147866 C20.5533964,9.73813476 19.315935,9.56210306 18.1644844,9.4073712 Z M9.41818293,9.3718128 L9.41730167,9.3723409 C10.5356171,8.38990801 11.8021599,7.56308714 13.2243328,7.10153204 C13.2306778,7.87360705 13.2285628,8.64585809 13.2285628,9.41793311 C11.9577899,9.42004549 10.6871933,9.43271977 9.41818293,9.3718128 Z M7.93626083,11.361499 C8.30603635,10.6693424 8.88784235,10.1195954 9.25374034,9.42550247 C9.31965838,9.51081916 9.34351107,9.61362167 9.32529842,9.73391 C9.33358224,10.2605968 9.34204231,10.7872837 9.41765418,11.3076333 C10.0646732,11.3118581 10.7220911,11.261513 11.3627651,11.3894881 C11.7505182,11.4628933 11.9851089,11.8656538 11.96202,12.2391931 C11.9831701,14.5534817 11.9558512,16.8679465 11.9747101,19.1822351 C11.9558512,19.587108 12.0563145,20.0759481 11.7038116,20.3718573 C11.1008554,20.57535 10.4497826,20.4662103 9.82585251,20.4788846 C9.58350678,21.1462208 9.41747793,21.8406658 9.40284906,22.5498975 C10.6753845,22.6187259 11.9525024,22.5724295 13.2275053,22.5851038 C13.2275053,23.3550665 13.2296203,24.1271415 13.2253903,24.8972801 C10.7280836,24.0942235 8.59544121,22.2304 7.52030743,19.8342565 C6.27473851,17.1610392 6.44270613,13.9025165 7.93626083,11.361499 Z M15.0666891,11.4632454 C16.1735481,11.494755 17.3919743,11.3269968 18.3897337,11.9186394 C19.2450819,12.405367 19.2979574,13.7777101 18.4695756,14.3190075 C17.4718162,14.9807107 16.2072121,14.8541439 15.0666891,14.8750917 L15.0666891,11.4632454 Z M15.0666891,16.7109262 L15.0673941,16.7105741 C16.4285839,16.7482449 17.9200236,16.515355 19.1467336,17.2476468 C20.0500223,17.7510975 20.1550681,19.1887483 19.2790985,19.7696529 C18.0536222,20.6188298 16.4740568,20.3822432 15.0666891,20.4956076 L15.0666891,16.7109262 Z M15.0145186,22.635977 L16.3799385,22.635977 C16.3799385,23.5319783 16.3820536,24.4278036 16.3778235,25.3238049 C15.9218611,25.3111306 15.4660748,25.2922952 15.0102886,25.262898 C15.0131086,24.3866122 15.0145186,23.5109719 15.0145186,22.635977 Z"/>
</svg>

<svg xmlns="http://www.w3.org/2000/svg" width="32" height="32"><path fill="#FFF" d="M16 32C7.163 32 0 24.837 0 16S7.163 0 16 0s16 7.163 16 16-7.163 16-16 16zm0-5c6.075 0 11-4.925 11-11S22.075 5 16 5 5 9.925 5 16s4.925 11 11 11zm-.988-20.26c.436-.03.875-.05 1.312-.065.005.897.003 1.795 0 2.692l-1.31-.002c0-.875 0-1.75-.002-2.625zm3.152 2.667h.001c-.002-.825-.002-1.65.004-2.474 2.43.609 4.594 2.197 5.867 4.358 1.441 2.397 1.683 5.458.662 8.06-1.076 2.82-3.605 5-6.535 5.715.002-.82.004-1.638-.002-2.457 1.392-.132 2.917-.254 4.043-1.18 1.137-.996 1.4-2.691 1.07-4.105-.254-1.079-1.271-1.763-2.298-2.002 1.716-.91 1.896-3.55.495-4.807-.918-.777-2.155-.953-3.307-1.108zm-8.746-.035c1.118-.982 2.384-1.809 3.806-2.27.007.772.005 1.544.005 2.316-1.271.002-2.542.015-3.81-.046zm-1.482 1.99c.37-.693.952-1.242 1.318-1.936.066.085.09.188.071.308.009.527.017 1.053.093 1.574.647.004 1.304-.046 1.945.081.388.074.622.477.599.85.021 2.314-.006 4.629.013 6.943-.02.405.081.894-.271 1.19-.603.203-1.254.094-1.878.107-.242.667-.409 1.362-.423 2.07 1.272.07 2.55.023 3.825.036 0 .77.002 1.542-.003 2.312-2.497-.803-4.63-2.667-5.705-5.063-1.245-2.673-1.077-5.931.416-8.473zm7.13.101c1.108.032 2.326-.136 3.324.456.855.486.908 1.859.08 2.4-.998.662-2.263.535-3.403.556v-3.412zm0 5.248h.001c1.362.037 2.853-.196 4.08.537.903.503 1.008 1.94.132 2.522-1.225.849-2.805.612-4.212.726V16.71zm-.051 5.925h1.365c0 .896.002 1.792-.002 2.688a37.374 37.374 0 0 1-1.368-.061c.003-.876.005-1.752.005-2.627z"/></svg>
